projects/flag-game/flags/East Timor.svg

<svg viewBox="0 0 1000 500" xmlns="http://www.w3.org/2000/svg"><path d="m0 0h1000v500h-1000z" fill="#dc241f"/><g fill-rule="evenodd"><path d="m0 0v500l500-250zm0 0" fill="#ffc726"/><path d="m0 0v500l333.332031-250zm0 0"/><path d="m85.867188 171.738281 13.03125 86.523438 41.207031-6.207031zm0 0" fill="#fff"/><path d="m85.867188 171.738281 61.402343 62.339844-29.6875 29.234375zm0 0" fill="#fff"/><path d="m187.335938 188.601562-78.257813 39.128907 18.632813 37.269531zm0 0" fill="#fff"/><path d="m187.335938 188.601562-40.308594 77.65625-36.984375-19.199218zm0 0" fill="#fff"/><path d="m38.476562 263.03125 86.316407 14.34375 6.832031-41.101562zm0 0" fill="#fff"/><path d="m38.476562 263.03125 78.261719-39.132812 18.636719 37.273437zm0 0" fill="#fff"/><path d="m202.660156 290.316406-61.402344-62.34375-29.6875 29.242188zm0 0" fill="#fff"/><path d="m202.660156 290.316406-86.320312-14.34375 6.832031-41.105468zm0 0" fill="#fff"/><path d="m110.65625 336.316406 40.316406-77.65625-36.980468-19.203125zm0 0" fill="#fff"/><path d="m110.65625 336.316406-13.03125-86.523437 41.203125-6.207031zm0 0" fill="#fff"/></g></svg>

<?xml version="1.0" encoding="UTF-8"?>
<svg xmlns="http://www.w3.org/2000/svg" xmlns:xlink="http://www.w3.org/1999/xlink" viewBox="0 0 1000 500" version="1.1">
<g id="surface379">
<rect x="0" y="0" width="1000" height="500" style="fill:rgb(86.273193%,14.117432%,12.156677%);fill-opacity:1;stroke:none;"/>
<path style=" stroke:none;fill-rule:evenodd;fill:rgb(99.998474%,78.038025%,14.901733%);fill-opacity:1;" d="M 0 0 L 0 500 L 500 250 Z M 0 0 "/>
<path style=" stroke:none;fill-rule:evenodd;fill:rgb(0%,0%,0%);fill-opacity:1;" d="M 0 0 L 0 500 L 333.332031 250 Z M 0 0 "/>
<path style=" stroke:none;fill-rule:evenodd;fill:rgb(99.998474%,99.998474%,99.998474%);fill-opacity:1;" d="M 85.867188 171.738281 L 98.898438 258.261719 L 140.105469 252.054688 Z M 85.867188 171.738281 "/>
<path style=" stroke:none;fill-rule:evenodd;fill:rgb(99.998474%,99.998474%,99.998474%);fill-opacity:1;" d="M 85.867188 171.738281 L 147.269531 234.078125 L 117.582031 263.3125 Z M 85.867188 171.738281 "/>
<path style=" stroke:none;fill-rule:evenodd;fill:rgb(99.998474%,99.998474%,99.998474%);fill-opacity:1;" d="M 187.335938 188.601562 L 109.078125 227.730469 L 127.710938 265 Z M 187.335938 188.601562 "/>
<path style=" stroke:none;fill-rule:evenodd;fill:rgb(99.998474%,99.998474%,99.998474%);fill-opacity:1;" d="M 187.335938 188.601562 L 147.027344 266.257812 L 110.042969 247.058594 Z M 187.335938 188.601562 "/>
<path style=" stroke:none;fill-rule:evenodd;fill:rgb(99.998474%,99.998474%,99.998474%);fill-opacity:1;" d="M 38.476562 263.03125 L 124.792969 277.375 L 131.625 236.273438 Z M 38.476562 263.03125 "/>
<path style=" stroke:none;fill-rule:evenodd;fill:rgb(99.998474%,99.998474%,99.998474%);fill-opacity:1;" d="M 38.476562 263.03125 L 116.738281 223.898438 L 135.375 261.171875 Z M 38.476562 263.03125 "/>
<path style=" stroke:none;fill-rule:evenodd;fill:rgb(99.998474%,99.998474%,99.998474%);fill-opacity:1;" d="M 202.660156 290.316406 L 141.257812 227.972656 L 111.570312 257.214844 Z M 202.660156 290.316406 "/>
<path style=" stroke:none;fill-rule:evenodd;fill:rgb(99.998474%,99.998474%,99.998474%);fill-opacity:1;" d="M 202.660156 290.316406 L 116.339844 275.972656 L 123.171875 234.867188 Z M 202.660156 290.316406 "/>
<path style=" stroke:none;fill-rule:evenodd;fill:rgb(99.998474%,99.998474%,99.998474%);fill-opacity:1;" d="M 110.65625 336.316406 L 150.972656 258.660156 L 113.992188 239.457031 Z M 110.65625 336.316406 "/>
<path style=" stroke:none;fill-rule:evenodd;fill:rgb(99.998474%,99.998474%,99.998474%);fill-opacity:1;" d="M 110.65625 336.316406 L 97.625 249.792969 L 138.828125 243.585938 Z M 110.65625 336.316406 "/>
</g>
</svg>
